ix/send-2_bold.svg

<svg viewBox="0 0 24 24" fill="none" xmlns="http://www.w3.org/2000/svg" height="1em" width="1em">
  <path d="M16.1391 2.95907L7.10914 5.95907C1.03914 7.98907 1.03914 11.2991 7.10914 13.3191L9.78914 14.2091L10.6791 16.8891C12.6991 22.9591 16.0191 22.9591 18.0391 16.8891L21.0491 7.86907C22.3891 3.81907 20.1891 1.60907 16.1391 2.95907ZM16.4591 8.33907L12.6591 12.1591C12.5091 12.3091 12.3191 12.3791 12.1291 12.3791C11.9391 12.3791 11.7491 12.3091 11.5991 12.1591C11.3091 11.8691 11.3091 11.3891 11.5991 11.0991L15.3991 7.27907C15.6891 6.98907 16.1691 6.98907 16.4591 7.27907C16.7491 7.56907 16.7491 8.04907 16.4591 8.33907Z" fill="#292D32"/>
</svg>

<svg viewBox="0 0 24 24" fill="none" xmlns="http://www.w3.org/2000/svg" height="1em" width="1em">
  <path d="m16.14 2.96-9.03 3c-6.07 2.03-6.07 5.34 0 7.36l2.68.89.89 2.68c2.02 6.07 5.34 6.07 7.36 0l3.01-9.02c1.34-4.05-.86-6.26-4.91-4.91Zm.32 5.38-3.8 3.82c-.15.15-.34.22-.53.22s-.38-.07-.53-.22a.754.754 0 0 1 0-1.06l3.8-3.82c.29-.29.77-.29 1.06 0 .29.29.29.77 0 1.06Z" fill="#292D32"/>
</svg>
